priv/static/svgs/icons_new/travel-bed.svg

<svg width="32" height="32" viewBox="0 0 32 32" fill="none" xmlns="http://www.w3.org/2000/svg">
<path d="M24.8 13.5172V10.2069C24.8 8.98806 23.815 8 22.6 8H9.4C8.18497 8 7.2 8.98806 7.2 10.2069V13.5172M7.2 21.7931V24M24.8 21.7931V24M9.95 13.5172V11.8621C9.95 11.2527 10.4425 10.7586 11.05 10.7586H13.25C13.8575 10.7586 14.35 11.2527 14.35 11.8621V13.5172M17.65 13.5172V11.8621C17.65 11.2527 18.1425 10.7586 18.75 10.7586H20.95C21.5575 10.7586 22.05 11.2527 22.05 11.8621V13.5172M6.1 21.2414H25.9C26.5075 21.2414 27 20.7473 27 20.1379V16.8276C27 16.2182 26.5075 15.7241 25.9 15.7241H6.1C5.49249 15.7241 5 16.2182 5 16.8276V20.1379C5 20.7473 5.49249 21.2414 6.1 21.2414Z" stroke="black" stroke-linecap="round"/>
</svg>

<svg width="32" height="32" viewBox="0 0 32 32" fill="none" xmlns="http://www.w3.org/2000/svg">
  <symbol id="item" viewBox="0 0 32 32" stroke-width="1" fill="none">
    <path d="M24.8 13.517v-3.31A2.203 2.203 0 0 0 22.6 8H9.4c-1.215 0-2.2.988-2.2 2.207v3.31m0 8.276V24m17.6-2.207V24M9.95 13.517v-1.655c0-.61.493-1.103 1.1-1.103h2.2c.607 0 1.1.494 1.1 1.103v1.655m3.3 0v-1.655c0-.61.492-1.103 1.1-1.103h2.2c.608 0 1.1.494 1.1 1.103v1.655M6.1 21.241h19.8c.608 0 1.1-.494 1.1-1.103v-3.31c0-.61-.492-1.104-1.1-1.104H6.1c-.608 0-1.1.494-1.1 1.104v3.31c0 .61.492 1.103 1.1 1.103Z" stroke="currentColor" stroke-linecap="round"/>
  </symbol>
</svg>
